src/skins/vector/img/icons-settings.svg

<?xml version="1.0" encoding="UTF-8" standalone="no"?>
<svg width="25px" height="25px" viewBox="0 0 25 25" version="1.1" xmlns="http://www.w3.org/2000/svg" xmlns:xlink="http://www.w3.org/1999/xlink">
    <!-- Generator: sketchtool 3.8.3 (29802) - http://www.bohemiancoding.com/sketch -->
    <title>4D42A2A7-7430-4D4F-A0A2-E19278CF66E3</title>
    <desc>Created with sketchtool.</desc>
    <defs></defs>
    <g id="Symbols" stroke="none" stroke-width="1" fill="none" fill-rule="evenodd">
        <g id="Room-list-Copy-3" transform="translate(-165.000000, -726.000000)">
            <g id="icons_settings" transform="translate(165.000000, 726.000000)">
                <path d="M12.5,25 C19.4035594,25 25,19.4035594 25,12.5 C25,5.59644063 19.4035594,0 12.5,0 C5.59644063,0 0,5.59644063 0,12.5 C0,19.4035594 5.59644063,25 12.5,25 Z" id="Oval-1-Copy-7" fill="#76CFA6"></path>
                <path d="M15.625,12.5 C15.625,11.6373655 15.3198273,10.900882 14.7094727,10.2905273 C14.099118,9.68017273 13.3626345,9.375 12.5,9.375 C11.6373655,9.375 10.900882,9.68017273 10.2905273,10.2905273 C9.68017273,10.900882 9.375,11.6373655 9.375,12.5 C9.375,13.3626345 9.68017273,14.099118 10.2905273,14.7094727 C10.900882,15.3198273 11.6373655,15.625 12.5,15.625 C13.3626345,15.625 14.099118,15.3198273 14.7094727,14.7094727 C15.3198273,14.099118 15.625,13.3626345 15.625,12.5 L15.625,12.5 Z M19.7916667,11.465115 L19.7916667,13.5728624 C19.7916667,13.6488177 19.7663486,13.721607 19.7157118,13.7912326 C19.665075,13.8608583 19.6017799,13.9020001 19.5258247,13.9146593 L17.7693685,14.1805013 C17.649106,14.5222999 17.5256806,14.8102925 17.3990885,15.0444878 C17.6206247,15.360968 17.9592534,15.7977041 18.4149848,16.3547092 C18.4782808,16.4306644 18.5099284,16.5097833 18.5099284,16.5920681 C18.5099284,16.674353 18.4814456,16.7471423 18.4244792,16.8104384 C18.2535799,17.0446337 17.9402692,17.3864272 17.4845378,17.835829 C17.0288063,18.2852308 16.7313194,18.5099284 16.5920681,18.5099284 C16.5161129,18.5099284 16.4338293,18.4814456 16.3452148,18.4244792 L15.0349935,17.3990885 C14.7564909,17.5446694 14.4684983,17.6649301 14.1710069,17.7598741 C14.0697333,18.6207002 13.9779554,19.2093445 13.8956706,19.5258247 C13.8513633,19.7030535 13.7374322,19.7916667 13.5538737,19.7916667 L11.4461263,19.7916667 C11.3575119,19.7916667 11.2799754,19.7647663 11.2135145,19.7109646 C11.1470537,19.657163 11.110659,19.5891208 11.1043294,19.5068359 L10.8384874,17.7598741 C10.5283368,17.6586005 10.243509,17.5415046 9.98399523,17.4085829 L8.6452908,18.4244792 C8.58199476,18.4814456 8.50287591,18.5099284 8.40793186,18.5099284 C8.31931741,18.5099284 8.24019855,18.4751161 8.17057292,18.4054905 C7.37304289,17.6839157 6.85085844,17.152237 6.60400391,16.8104384 C6.55969668,16.7471423 6.5375434,16.674353 6.5375434,16.5920681 C6.5375434,16.5161129 6.56286144,16.4433236 6.61349826,16.3736979 C6.70844231,16.2407762 6.86984478,16.0303201 7.0977105,15.7423231 C7.32557623,15.4543262 7.49647295,15.231211 7.61040582,15.0729709 C7.43950652,14.7564907 7.3097516,14.4431801 7.22113715,14.1330295 L5.4836697,13.8766819 C5.40138486,13.8640227 5.33492502,13.8244632 5.28428819,13.7580024 C5.23365137,13.6915416 5.20833333,13.6171698 5.20833333,13.534885 L5.20833333,11.4271376 C5.20833333,11.3511823 5.23365137,11.278393 5.28428819,11.2087674 C5.33492502,11.1391417 5.39505535,11.0979999 5.46468099,11.0853407 L7.23063151,10.8194987 C7.31924596,10.5283369 7.44267137,10.2371796 7.60091146,9.9460178 C7.34772732,9.5852304 7.00909862,9.14849432 6.58501519,8.63579644 C6.52171916,8.5598412 6.49007161,8.4838871 6.49007161,8.40793186 C6.49007161,8.34463582 6.5185544,8.27184648 6.57552083,8.18956163 C6.74009052,7.96169591 7.05181881,7.62148483 7.51071506,7.16891819 C7.96961131,6.71635154 8.26868058,6.49007161 8.40793186,6.49007161 C8.4902167,6.49007161 8.57250031,6.52171916 8.65478516,6.58501519 L9.96500651,7.60091146 C10.2435091,7.45533058 10.5315017,7.33506992 10.8289931,7.24012587 C10.9302667,6.3792998 11.0220446,5.79065552 11.1043294,5.47417535 C11.1486367,5.29694645 11.2625678,5.20833333 11.4461263,5.20833333 L13.5538737,5.20833333 C13.6424881,5.20833333 13.7200246,5.23523374 13.7864855,5.28903537 C13.8529463,5.342837 13.889341,5.41087922 13.8956706,5.49316406 L14.1615126,7.24012587 C14.4716632,7.34139952 14.756491,7.45849543 15.0160048,7.5914171 L16.3642036,6.57552083 C16.42117,6.5185544 16.4971241,6.49007161 16.5920681,6.49007161 C16.674353,6.49007161 16.7534718,6.52171916 16.8294271,6.58501519 C17.6459459,7.338238 18.1681304,7.87624622 18.3959961,8.19905599 C18.4403033,8.24969282 18.4624566,8.31931741 18.4624566,8.40793186 C18.4624566,8.4838871 18.4371386,8.55667645 18.3865017,8.62630208 C18.2915577,8.75922375 18.1301552,8.96967991 17.9022895,9.25767687 C17.6744238,9.54567382 17.503527,9.76878899 17.3895942,9.92702908 C17.5541639,10.2435093 17.6839188,10.5536552 17.7788628,10.8574761 L19.5163303,11.1233181 C19.5986151,11.1359773 19.665075,11.1755368 19.7157118,11.2419976 C19.7663486,11.3084584 19.7916667,11.3828302 19.7916667,11.465115 L19.7916667,11.465115 Z" id="icons_settings-copy" stroke="#FFFFFF" opacity="0.8"></path>
            </g>
        </g>
    </g>
</svg>

<?xml version="1.0" encoding="UTF-8" standalone="no"?>
<svg
   xmlns:dc="http://purl.org/dc/elements/1.1/"
   xmlns:cc="http://creativecommons.org/ns#"
   xmlns:rdf="http://www.w3.org/1999/02/22-rdf-syntax-ns#"
   xmlns:svg="http://www.w3.org/2000/svg"
   xmlns="http://www.w3.org/2000/svg"
   xmlns:sodipodi="http://sodipodi.sourceforge.net/DTD/sodipodi-0.dtd"
   xmlns:inkscape="http://www.inkscape.org/namespaces/inkscape"
   width="25px"
   height="25px"
   viewBox="0 0 25 25"
   version="1.1"
   id="svg9206"
   inkscape:version="0.48.4 r9939"
   sodipodi:docname="icons-settings.svg">
  <metadata
     id="metadata9221">
    <rdf:RDF>
      <cc:Work
         rdf:about="">
        <dc:format>image/svg+xml</dc:format>
        <dc:type
           rdf:resource="http://purl.org/dc/dcmitype/StillImage" />
      </cc:Work>
    </rdf:RDF>
  </metadata>
  <sodipodi:namedview
     pagecolor="#ffffff"
     bordercolor="#666666"
     borderopacity="1"
     objecttolerance="10"
     gridtolerance="10"
     guidetolerance="10"
     inkscape:pageopacity="0"
     inkscape:pageshadow="2"
     inkscape:window-width="1855"
     inkscape:window-height="1056"
     id="namedview9219"
     showgrid="false"
     inkscape:zoom="9.44"
     inkscape:cx="-9.1631356"
     inkscape:cy="12.5"
     inkscape:window-x="65"
     inkscape:window-y="24"
     inkscape:window-maximized="1"
     inkscape:current-layer="svg9206" />
  <!-- Generator: sketchtool 3.8.3 (29802) - http://www.bohemiancoding.com/sketch -->
  <title
     id="title9208">4D42A2A7-7430-4D4F-A0A2-E19278CF66E3</title>
  <desc
     id="desc9210">Created with sketchtool.</desc>
  <defs
     id="defs9212" />
  <path
     style="fill:#d4ccb1;stroke:none;fill-opacity:1"
     inkscape:connector-curvature="0"
     id="Oval-1-Copy-7"
     d="M 12.5,25 C 19.403559,25 25,19.403559 25,12.5 25,5.5964406 19.403559,0 12.5,0 5.5964406,0 0,5.5964406 0,12.5 0,19.403559 5.5964406,25 12.5,25 z" />
  <path
     style="opacity:0.8;fill:none;stroke:#ffffff"
     inkscape:connector-curvature="0"
     id="icons_settings-copy"
     d="m 15.625,12.5 c 0,-0.862634 -0.305173,-1.599118 -0.915527,-2.209473 C 14.099118,9.6801727 13.362635,9.375 12.5,9.375 c -0.862634,0 -1.599118,0.3051727 -2.209473,0.915527 C 9.6801727,10.900882 9.375,11.637366 9.375,12.5 c 0,0.862635 0.3051727,1.599118 0.915527,2.209473 C 10.900882,15.319827 11.637366,15.625 12.5,15.625 c 0.862635,0 1.599118,-0.305173 2.209473,-0.915527 C 15.319827,14.099118 15.625,13.362635 15.625,12.5 l 0,0 z m 4.166667,-1.034885 0,2.107747 c 0,0.07596 -0.02532,0.148745 -0.07596,0.218371 -0.05064,0.06963 -0.113932,0.110767 -0.189887,0.123426 l -1.756457,0.265842 c -0.120262,0.341799 -0.243687,0.629791 -0.370279,0.863987 0.221536,0.31648 0.560164,0.753216 1.015896,1.310221 0.0633,0.07596 0.09494,0.155074 0.09494,0.237359 0,0.08228 -0.02848,0.155074 -0.08545,0.21837 -0.170899,0.234196 -0.48421,0.575989 -0.939941,1.025391 -0.455732,0.449402 -0.753219,0.674099 -0.89247,0.674099 -0.07596,0 -0.158239,-0.02848 -0.246853,-0.08545 l -1.310221,-1.02539 c -0.278503,0.14558 -0.566496,0.265841 -0.863987,0.360785 -0.101274,0.860826 -0.193052,1.44947 -0.275336,1.765951 -0.04431,0.177228 -0.158239,0.265842 -0.341797,0.265842 l -2.107748,0 c -0.08861,0 -0.166151,-0.0269 -0.232611,-0.0807 -0.06646,-0.0538 -0.102856,-0.121844 -0.109186,-0.204129 L 10.838487,17.759874 C 10.528337,17.6586 10.243509,17.541505 9.9839952,17.408583 l -1.3387044,1.015896 c -0.063296,0.05697 -0.1424149,0.08545 -0.2373589,0.08545 -0.088615,0 -0.1677333,-0.03481 -0.237359,-0.104438 -0.79753,-0.721574 -1.3197145,-1.253253 -1.566569,-1.595052 -0.044307,-0.0633 -0.066461,-0.136085 -0.066461,-0.21837 0,-0.07596 0.025318,-0.148744 0.075955,-0.21837 C 6.7084423,16.240776 6.8698448,16.03032 7.0977105,15.742323 7.3255762,15.454326 7.4964729,15.231211 7.6104058,15.072971 7.4395065,14.756491 7.3097516,14.44318 7.2211371,14.133029 L 5.4836697,13.876682 c -0.082285,-0.01266 -0.1487447,-0.05222 -0.1993815,-0.11868 -0.050637,-0.06646 -0.075955,-0.140832 -0.075955,-0.223117 l 0,-2.107747 c 0,-0.07596 0.025318,-0.148745 0.075955,-0.218371 C 5.334925,11.139142 5.3950553,11.098 5.464681,11.085341 L 7.2306315,10.819499 C 7.319246,10.528337 7.4426714,10.23718 7.6009115,9.9460178 7.3477273,9.5852304 7.0090986,9.1484943 6.5850152,8.6357964 6.5217192,8.5598412 6.4900716,8.4838871 6.4900716,8.4079319 c 0,-0.063296 0.028483,-0.1360854 0.085449,-0.2183703 C 6.7400905,7.9616959 7.0518188,7.6214848 7.5107151,7.1689182 7.9696113,6.7163515 8.2686806,6.4900716 8.4079319,6.4900716 c 0.082285,0 0.1645684,0.031648 0.2468533,0.094944 L 9.9650065,7.6009115 C 10.243509,7.4553306 10.531502,7.3350699 10.828993,7.2401259 c 0.101274,-0.8608261 0.193052,-1.4494704 0.275336,-1.7659505 0.04431,-0.177229 0.158239,-0.2658421 0.341797,-0.2658421 l 2.107748,0 c 0.08861,0 0.166151,0.0269 0.232612,0.080702 0.06646,0.053802 0.102855,0.1218438 0.109185,0.2041287 l 0.265842,1.7469618 c 0.31015,0.1012736 0.594978,0.2183695 0.854492,0.3512912 l 1.348199,-1.0158963 c 0.05697,-0.056966 0.13292,-0.085449 0.227864,-0.085449 0.08228,0 0.161404,0.031648 0.237359,0.094944 0.816519,0.7532228 1.338703,1.291231 1.566569,1.6140408 0.04431,0.050637 0.06646,0.1202614 0.06646,0.2088759 0,0.075955 -0.02532,0.1487446 -0.07596,0.2183702 -0.09494,0.1329217 -0.256347,0.3433778 -0.484213,0.6313748 -0.227865,0.2879969 -0.398762,0.5111121 -0.512695,0.6693522 0.16457,0.3164804 0.294325,0.6266264 0.389269,0.9304474 l 1.737467,0.265842 c 0.08228,0.01266 0.148745,0.05222 0.199382,0.11868 0.05064,0.06646 0.07596,0.140832 0.07596,0.223117 l 0,0 z" />
</svg>
